X:1
T:There Came a Little Child to Earth
T:There Came a Little Child to Earth
T:Harold Steck Lewars, 1914
T:Emily Elizabeth Steele Elliott, 1856
T:Public Domain Courtesy of the Cyber Hymnal™
T:Public Domain Courtesy of the Cyber Hymnal™
C:Harold Steck Lewars, 1914
Z:Public Domain
Z:Courtesy of the Cyber Hymnal™
%%score 1 ( 2 3 ) ( 4 5 )
L:1/8
Q:1/4=93
M:6/8
K:D
V:1 treble 
V:2 treble 
V:3 treble 
V:4 bass 
V:5 bass 
V:1
 A | d2 d A2 A | B2 B F2 z | A2 A F2 z | A2 A F2 z | ddd A2 A | B2 B F2 z | A2 A F2 z | A2 A F2 z | %9
w: 1.~There|came a lit- tle|Child to earth,|Long a- go,|long a- go;|An- gels of God pro-|claimed His birth,|High and low,|high and low.|
w: 2.~Far,|far a- way in|God’s dear land,|Fair and bright,|fair and bright,|Child- ren with crowns of|glo- ry stand|Robed in white,|robed in white.|
w: 3.~In|mor- tal pain and|want He came|Here to die,|here to die;|Child- ren of earth now|with Him reign|There on high,|there on high,|
 AAA B2 B | c2 c A2 A | e3- e2 ^G | A4 z A/A/ | ddd A2 A | B2 B F2 F | A3- A2 E | F3- F2 |] %17
w: Out in the night so|calm and still Their|song * was|heard, For they|knew that the Child On|Beth- l’m’s hill Was|Christ, * the|Lord. *|
w: They sing, the Lord of|Heavn so fair A|Child * was|born; And that|they might His crown Of|glo- ry share, Wore|crown * of|thorn. *|
w: And ev- er- more their|robes so fair And|un- * de-|filed, In that|heaven- ly king- dom His|praise de- clare Who|was * a|child. *|
V:2
 A | [Fd]2 [Fd] [EA]2 [EA] | [DB]2 [DB] [DF]2 z | [EA]2 [EA] [DF]2 z | [EA]2 [EA] [DF]2 z | %5
 [Fd]2 [Fd] [EA]2 [EA] | [FB]2 [FB] [DF]2 z | [EA]2 [EA] [DF]2 z | [EA]2 [EA] [DF]2 z | %9
 [EA]3 [FB]2 [FB] | [Gc]2 [Gc] [FA]2 [FA] | [Ae-]3 [^Ge]2 z | [EA]4 z [EA] | %13
 [Ad]2 [Ad] [EA]2 [EA] | [DB]2 [DB] [DF]2 [DF] | [DA-]3 A2 E | [DF]3- [DF]2 |] %17
V:3
 x | x6 | x6 | x6 | x6 | x6 | x6 | x6 | x6 | x6 | x6 | x6 | x6 | x6 | x6 | x3 C3 | x5 |] %17
V:4
 A, | [D,A,]2 [D,A,] [C,A,]2 [C,A,] | [B,,F,]2 [B,,F,] [B,,A,]2 z | [A,C]2 [A,C] [A,D]2 z | %4
 [A,C]2 [A,C] [D,A,]2 z | [D,A,]2 [D,A,] [A,C]2 [A,C] | [B,D]2 [B,D] [B,,B,]2 z | %7
 [A,,C]2 [A,,C] [D,A,]2 z | [A,,C]2 [A,,C] [D,A,]2 z | [A,C]3 [A,D]2 [A,D] | %10
 [A,E]2 [A,E] [A,D]2 [A,D] | [E,-C]3 [E,B,]2 D | [A,C]4 z [G,C] | [F,D]2 [F,D] [A,C]2 [A,C] | %14
 G,2 G, [D,A,]2 [D,A,] | F,3 E,2 A, | [D,A,]3- [D,A,]2 |] %17
V:5
 x | x6 | x6 | x6 | x6 | x6 | x6 | x6 | x6 | x6 | x6 | x6 | x6 | x6 | G,2 G, x3 | G,,6 | x5 |] %17

